resources/haticons/SVG/google-plus1.svg

<!-- Generated by IcoMoon.io -->
<svg version="1.1" xmlns="http://www.w3.org/2000/svg" width="24" height="24" viewBox="0 0 24 24">
<title>google-plus1</title>
<path d="M24 11.85h-2.7v2.625h-1.875v-2.625h-2.7v-1.875h2.7v-2.625h1.875v2.625h2.7v1.875zM11.475 17.85c-6.3 2.775-9.375-1.575-10.5-2.925s-2.175-7.425 3-10.125 8.775 0.9 8.775 0.9l-2.175 2.175c-2.325-2.175-5.1-0.6-5.1-0.6-2.55 1.65-2.25 3.675-2.25 4.5s0.9 3.975 4.5 3.975 4.050-3 4.050-3h-4.125v-2.925l7.2 0.075c0.75 6.075-3.375 7.95-3.375 7.95z"></path>
</svg>

<svg xmlns="http://www.w3.org/2000/svg" width="24" height="24"><path d="M24 11.85h-2.7v2.625h-1.875V11.85h-2.7V9.975h2.7V7.35H21.3v2.625H24v1.875zm-12.525 6c-6.3 2.775-9.375-1.575-10.5-2.925S-1.2 7.5 3.975 4.8s8.775.9 8.775.9l-2.175 2.175c-2.325-2.175-5.1-.6-5.1-.6-2.55 1.65-2.25 3.675-2.25 4.5s.9 3.975 4.5 3.975 4.05-3 4.05-3H7.65V9.825l7.2.075c.75 6.075-3.375 7.95-3.375 7.95z"/></svg>
